.local/share/icons/Gruvbox-Plus-Dark/mimetypes/scalable/text-x-gettext-translation-template.svg

<svg width="256" height="256" viewBox="0 0 256 256" fill="none" xmlns="http://www.w3.org/2000/svg">
<g opacity="0.4" filter="url(#filter0_f)">
<path d="M55.0839 15.5636H155.608L216.009 75.7129L216.011 224.609C216.011 233.52 208.749 240.737 199.838 240.737H55.0838C46.1734 240.737 39 233.564 39 224.654V31.6474C39 22.737 46.1734 15.5636 55.0838 15.5636H55.0839Z" fill="#282828"/>
</g>
<path d="M55.0839 15H155.608L216.009 75.1493L216.011 224.045C216.011 232.956 208.749 240.174 199.838 240.174H55.0838C46.1734 240.174 39 233 39 224.09V31.0838C39 22.1734 46.1734 15 55.0838 15H55.0839Z" fill="#ebdbb2"/>
<path opacity="0.2" d="M199.838 240.174C208.749 240.174 216.011 232.956 216.011 224.046L216.01 186.5H39V224.09C39 233 46.1734 240.174 55.0838 240.174H199.838Z" fill="url(#paint0_linear)"/>
<g opacity="0.4">
<path fill-rule="evenodd" clip-rule="evenodd" d="M39.068 88.9434C38.818 84.3824 39.13 57.6944 42.193 55.0074V55.0054L56.664 69.4104H63.998V60.6504H78.666L87.466 69.4104V75.2504H80.131L71.331 84.0094V89.8474L77.199 95.6874H83.065V84.0094H96.268L105.068 92.7694L96.266 102.986L100.666 107.366H91.865L83.065 116.126H77.198L68.398 124.884V142.402L53.73 127.803H44.93L39.063 121.963V106.589C39.063 104.326 39.049 102.168 39.0355 100.097C39.0096 96.1091 38.9858 92.44 39.068 88.9434ZM60.255 46.7574C61.461 46.2374 82.406 45.9494 83.131 46.0074L83.065 54.8124H68.398L60.255 46.7574ZM147.602 88.3884V84.0084L152.002 79.6284V88.3884H147.602ZM193.071 174.519V165.365L198.939 159.921V174.52H193.071V174.519ZM132.935 46.0524H99.955C99.6642 46.0524 99.417 46.0616 99.1699 46.0709C98.9371 46.0797 98.7043 46.0884 98.435 46.0894L93.333 51.8924L102.133 60.6504V69.8044L112.401 81.0894H118.268V75.2494L127.068 66.4894V60.6494L132.935 54.8114V46.0524ZM125.601 78.1694H130.001L134.401 82.5494H125.601V78.1694ZM85.999 126.344H81.599L77.199 130.724H85.999V126.344ZM165.203 119.045L182.805 119.045L182.805 124.884L197.472 139.483H203.339L188.671 154.081L188.87 170.85L170.476 189.157L159.336 177.439V159.921L156.403 157.002V152.622L152.003 148.243H141.735L134.402 140.943V126.344L144.669 116.125H162.269L165.203 119.045ZM81.4438 209.079C81.2701 209.063 81.0965 209.047 80.91 209.034L80.909 209.035L78.665 206.635V187.658L83.064 183.278L83.104 170.19L71.33 159.922V145.322L77.198 139.482H91.866L97.733 145.322H109.467L115.333 151.162V162.84L110.933 167.22V171.598L102.133 180.358V186.198L83.065 203.717L83.093 209.153C82.9384 209.145 82.7575 209.143 82.5764 209.141C82.3887 209.139 82.2009 209.138 82.042 209.128C81.8312 209.116 81.638 209.098 81.445 209.079L81.4438 209.079ZM102.133 100.067L106.533 95.6874L110.934 100.067L109.467 101.527H108L106.533 100.067H102.133Z" fill="url(#paint1_linear)"/>
<path d="M215.073 121.964V106.59C215.073 105.953 215.078 104.991 215.085 103.777C215.119 97.4559 215.191 84.2773 214.756 74.2564L203.5 63.5714H197.471L188.671 72.3314L182.805 66.4914H165.204L156.404 75.2514V82.5494H165.204V78.1694H171.071V84.0094L168.136 86.9284L156.403 87.1254L152.003 91.3084H146.136V97.1484L141.735 101.528V110.285H150.535L156.403 104.446H162.27V107.366L168.136 113.206H171.071V110.285L165.204 104.446H171.071L176.936 110.285H184.27L179.87 105.906L184.27 101.527H188.671L193.071 105.907H188.671L184.271 110.285L188.591 114.585L188.671 119.045H182.805L200.406 136.563H203.338L206.272 133.644L212.139 127.804L206.272 121.964H215.073Z" fill="url(#paint2_linear)"/>
</g>
<path fill-rule="evenodd" clip-rule="evenodd" d="M155.608 20.3191H55.0839C49.1112 20.3191 44.3191 25.1111 44.3191 31.0838V224.09C44.3191 230.063 49.1111 234.855 55.0838 234.855H199.838C205.83 234.855 210.692 229.999 210.692 224.046V75.1493L155.608 20.3191ZM155.608 15H55.0839C46.1735 15 39 22.1734 39 31.0838V224.09C39 233 46.1734 240.174 55.0838 240.174H199.838C208.749 240.174 216.011 232.956 216.011 224.045L216.009 75.1493L155.608 15Z" fill="url(#paint3_linear)"/>
<path d="M92.4039 226H97.2039V215.4H104.044C110.764 215.4 113.444 210.68 113.444 206.68C113.444 202.4 111.004 198 104.044 198H92.4039V226ZM104.284 210.84H97.2039V202.56H104.284C107.564 202.56 108.484 204.92 108.484 206.68C108.484 208.64 107.364 210.84 104.284 210.84ZM128.723 226.48C137.763 226.48 141.003 218.92 141.003 212C141.003 205.08 137.763 197.52 128.723 197.52C119.723 197.52 116.443 205.08 116.443 212C116.443 218.92 119.723 226.48 128.723 226.48ZM128.723 221.88C123.283 221.88 121.403 216.56 121.403 212C121.403 207.68 123.283 202.12 128.723 202.12C134.163 202.12 136.043 207.4 136.043 212C136.043 216.28 134.123 221.88 128.723 221.88ZM156.45 202.6H164.41V198H143.69V202.6H151.65V226H156.45V202.6Z" fill="url(#paint4_linear)"/>
<path d="M98.8539 155.023H81.1241L77.9418 164.095H68.0054L68 160.929L84.8259 119.104H95.6066L112.028 160.929L111.973 164.095H101.971L98.8539 155.023ZM96.1912 147.308L90.0215 129.719L83.8518 147.308H96.1912Z" fill="#282828" fill-opacity="0.141176"/>
<path d="M98.2679 152.008H81.5878L78.4167 161.049H68.3009L85.4883 117.172H94.304L111.587 161.049H101.471L98.2679 152.008ZM84.1564 144.686H95.6993L89.8961 128.262L84.1564 144.686Z" fill="url(#paint5_linear)"/>
<path d="M185.723 113.668C179.036 113.147 175.036 112.887 173.723 112.887C169.58 112.887 165.477 113.017 161.416 113.278L163.016 107.09C166.79 106.091 169.703 104.029 171.754 100.902C173.846 97.776 174.893 93.6075 174.893 88.3969C174.893 84.3152 174.298 80.798 173.108 77.8453C171.918 74.8492 170.216 72.5261 168 70.8761C165.826 69.226 163.262 68.401 160.308 68.401C155.426 68.401 151.611 70.0945 148.862 73.4814C146.114 76.8683 144.739 81.6882 144.739 87.9409C144.739 92.5871 145.785 96.6036 147.878 99.9905C149.97 103.334 152.78 105.657 156.308 106.96L154.278 113.147C152.431 113.061 150.565 112.974 148.678 112.887C146.831 112.8 144.985 112.757 143.139 112.757C141.252 112.757 139.385 112.8 137.539 112.887C135.693 112.93 133.827 112.995 131.939 113.082L131.509 112.366L133.293 106.178L149.785 107.285V106.699C145.56 105.049 142.216 102.531 139.755 99.1438C137.334 95.7135 136.124 91.8055 136.124 87.4198C136.124 82.8605 137.088 78.9743 139.016 75.7611C140.985 72.5478 143.775 70.0945 147.385 68.401C151.037 66.6641 155.406 65.7957 160.493 65.7957C167.959 65.7957 173.662 67.576 177.6 71.1366C181.539 74.6972 183.508 79.7776 183.508 86.3777C183.508 89.8081 182.831 92.9779 181.477 95.8872C180.123 98.7964 178.318 101.206 176.062 103.117C173.805 105.027 171.303 106.2 168.554 106.634L168.493 107.22L188 106.243L185.723 113.668Z" fill="#282828" fill-opacity="0.141176"/>
<path d="M185.723 110.503C179.036 109.982 175.036 109.721 173.723 109.721C169.58 109.721 165.477 109.852 161.416 110.112L163.016 103.925C166.79 102.926 169.703 100.863 171.754 97.7369C173.846 94.6105 174.893 90.442 174.893 85.2313C174.893 81.1497 174.298 77.6325 173.108 74.6798C171.918 71.6837 170.216 69.3606 168 67.7106C165.826 66.0605 163.262 65.2355 160.308 65.2355C155.426 65.2355 151.611 66.929 148.862 70.3159C146.114 73.7028 144.739 78.5226 144.739 84.7754C144.739 89.4216 145.785 93.4381 147.878 96.825C149.97 100.169 152.78 102.492 156.308 103.794L154.278 109.982C152.431 109.895 150.565 109.808 148.678 109.721C146.831 109.635 144.985 109.591 143.139 109.591C141.252 109.591 139.385 109.635 137.539 109.721C135.693 109.765 133.827 109.83 131.939 109.917L131.509 109.2L133.293 103.013L149.785 104.12V103.534C145.56 101.884 142.216 99.3652 139.755 95.9783C137.334 92.548 136.124 88.64 136.124 84.2544C136.124 79.695 137.088 75.8088 139.016 72.5955C140.985 69.3823 143.775 66.929 147.385 65.2355C151.037 63.4986 155.406 62.6302 160.493 62.6302C167.959 62.6302 173.662 64.4105 177.6 67.9711C181.539 71.5317 183.508 76.6121 183.508 83.2122C183.508 86.6426 182.831 89.8124 181.477 92.7216C180.123 95.6309 178.318 98.0408 176.062 99.9514C173.805 101.862 171.303 103.034 168.554 103.469L168.493 104.055L188 103.078L185.723 110.503Z" fill="url(#paint6_linear)"/>
<path d="M109.53 85.2689L112.033 92.9178L129.478 73.6965V69.048L104.122 61L104.203 65.4411L105.602 72.7247C83.4046 83.9096 74.5331 101.988 74.5331 102.813V107.462L88.6245 109.787C91.8119 96.3122 99.6425 89.4982 109.53 85.2689H109.53Z" fill="#3c3836" fill-opacity="0.141176"/>
<path d="M109.53 80.6204L112.033 88.2693L129.478 69.048L104.122 61L105.602 68.0762C80.5874 80.6807 77.9765 91.7179 74.5331 102.813L88.0417 105.203C91.2291 91.7284 99.6425 84.8497 109.53 80.6204Z" fill="url(#paint7_linear)"/>
<path d="M141.298 148.713L138.795 141.064L119.944 155.875L119.956 160.285L145.395 168.989L145.257 163.83L144.445 161.444C169.46 148.84 174.017 132.063 174.828 128.071L174.852 122.101L162.786 124.13C159.599 137.605 151.185 144.484 141.298 148.713H141.298Z" fill="#282828" fill-opacity="0.141914"/>
<path d="M139.874 144.323L137.371 136.674L119.926 155.896L145.282 163.944L143.802 156.868C168.817 144.263 171.427 133.226 174.871 122.13L161.362 119.741C158.175 133.215 149.761 140.094 139.874 144.323Z" fill="url(#paint8_linear)"/>
<path opacity="0.25" d="M155.608 17V61.2306C155.608 70.141 162.867 77.1605 171.777 77.1605L216.009 77.1493V75.1493L155.608 17Z" fill="#282828"/>
<path d="M155.608 15V59.2306C155.608 68.141 162.867 75.1605 171.777 75.1605L216.009 75.1493L155.608 15Z" fill="url(#paint9_linear)"/>
<defs>
<filter id="filter0_f" x="23.8778" y="0.441412" width="207.255" height="255.418" filterUnits="userSpaceOnUse" color-interpolation-filters="sRGB">
<feFlood flood-opacity="0" result="BackgroundImageFix"/>
<feBlend mode="normal" in="SourceGraphic" in2="BackgroundImageFix" result="shape"/>
<feGaussianBlur stdDeviation="7.5611" result="effect1_foregroundBlur"/>
</filter>
<linearGradient id="paint0_linear" x1="39" y1="186.5" x2="39" y2="240.174" gradientUnits="userSpaceOnUse">
<stop offset="1e-07" stop-color="#504945"/>
<stop offset="1" stop-color="#3c3836"/>
</linearGradient>
<linearGradient id="paint1_linear" x1="127.057" y1="46" x2="127.057" y2="209.156" gradientUnits="userSpaceOnUse">
<stop stop-color="#689d6a"/>
<stop offset="0.1" stop-color="#689d6a"/>
<stop offset="1" stop-color="#8ec07c"/>
</linearGradient>
<linearGradient id="paint2_linear" x1="127.057" y1="46" x2="127.057" y2="209.156" gradientUnits="userSpaceOnUse">
<stop stop-color="#689d6a"/>
<stop offset="0.1" stop-color="#689d6a"/>
<stop offset="1" stop-color="#8ec07c"/>
</linearGradient>
<linearGradient id="paint3_linear" x1="127.507" y1="15" x2="127.507" y2="240.178" gradientUnits="userSpaceOnUse">
<stop stop-color="#689d6a"/>
<stop offset="0.1" stop-color="#689d6a"/>
<stop offset="1" stop-color="#8ec07c"/>
</linearGradient>
<linearGradient id="paint4_linear" x1="39" y1="187" x2="39" y2="240" gradientUnits="userSpaceOnUse">
<stop offset="1e-07" stop-color="#504945"/>
<stop offset="1" stop-color="#3c3836"/>
</linearGradient>
<linearGradient id="paint5_linear" x1="68.3009" y1="117.172" x2="68.3009" y2="161.049" gradientUnits="userSpaceOnUse">
<stop offset="1e-07" stop-color="#504945"/>
<stop offset="1" stop-color="#3c3836"/>
</linearGradient>
<linearGradient id="paint6_linear" x1="131.509" y1="62.6302" x2="131.509" y2="110.503" gradientUnits="userSpaceOnUse">
<stop offset="1e-07" stop-color="#504945"/>
<stop offset="1" stop-color="#3c3836"/>
</linearGradient>
<linearGradient id="paint7_linear" x1="102.006" y1="61" x2="102.006" y2="105.204" gradientUnits="userSpaceOnUse">
<stop stop-color="#689d6a"/>
<stop offset="0.1" stop-color="#689d6a"/>
<stop offset="1" stop-color="#8ec07c"/>
</linearGradient>
<linearGradient id="paint8_linear" x1="147.399" y1="119.741" x2="147.399" y2="163.945" gradientUnits="userSpaceOnUse">
<stop stop-color="#689d6a"/>
<stop offset="0.1" stop-color="#689d6a"/>
<stop offset="1" stop-color="#8ec07c"/>
</linearGradient>
<linearGradient id="paint9_linear" x1="185.809" y1="15" x2="185.809" y2="75.1616" gradientUnits="userSpaceOnUse">
<stop stop-color="#689d6a"/>
<stop offset="0.1" stop-color="#689d6a"/>
<stop offset="1" stop-color="#8ec07c"/>
</linearGradient>
</defs>
</svg>

<svg width="256" height="256" fill="none" version="1.1" viewBox="0 0 256 256" xmlns="http://www.w3.org/2000/svg">
  <path d="m55.08 15h100.5l60.4 60.15 2e-3 148.9c0 8.911-7.262 16.13-16.17 16.13h-144.8c-8.91 0-16.08-7.174-16.08-16.08v-193c0-8.91 7.173-16.08 16.08-16.08h1e-4z" fill="#ebdbb2"/>
  <path d="m199.8 240.2c8.911 0 16.17-7.218 16.17-16.13l-1e-3 -37.55h-177v37.59c0 8.91 7.173 16.08 16.08 16.08h144.8z" fill="url(#paint0_linear)" opacity=".2"/>
  <g fill="url(#paint1_linear)" opacity=".4">
    <path d="m39.07 88.94c-0.25-4.561 0.062-31.25 3.125-33.94v-2e-3l14.47 14.4h7.334v-8.76h14.67l8.8 8.76v5.84h-7.335l-8.8 8.759v5.838l5.868 5.84h5.866v-11.68h13.2l8.8 8.76-8.802 10.22 4.4 4.38h-8.801l-8.8 8.76h-5.867l-8.8 8.758v17.52l-14.67-14.6h-8.8l-5.867-5.84v-15.37c0-2.263-0.014-4.421-0.0275-6.492-0.0259-3.988-0.0497-7.657 0.0325-11.15zm21.19-42.19c1.206-0.52 22.15-0.808 22.88-0.75l-0.066 8.805h-14.67l-8.143-8.055zm87.35 41.63v-4.38l4.4-4.38v8.76h-4.4zm45.47 86.13v-9.154l5.868-5.444v14.6h-5.868v-1e-3zm-60.14-128.5h-32.98c-0.2908 0-0.538 0.0092-0.7851 0.0185-0.2328 0.0088-0.4656 0.0175-0.7349 0.0185l-5.102 5.803 8.8 8.758v9.154l10.27 11.28h5.867v-5.84l8.8-8.76v-5.84l5.867-5.838v-8.759zm-7.334 32.12h4.4l4.4 4.38h-8.8v-4.38zm-39.6 48.17h-4.4l-4.4 4.38h8.8v-4.38zm79.2-7.299h17.6v5.839l14.67 14.6h5.867l-14.67 14.6 0.199 16.77-18.39 18.31-11.14-11.72v-17.52l-2.933-2.919v-4.38l-4.4-4.379h-10.27l-7.333-7.3v-14.6l10.27-10.22h17.6l2.934 2.92zm-83.76 90.03c-0.1737-0.016-0.3473-0.032-0.5338-0.045l-1e-3 1e-3 -2.244-2.4v-18.98l4.399-4.38 0.04-13.09-11.77-10.27v-14.6l5.868-5.84h14.67l5.867 5.84h11.73l5.866 5.84v11.68l-4.4 4.38v4.378l-8.8 8.76v5.84l-19.07 17.52 0.028 5.436c-0.1546-8e-3 -0.3355-0.01-0.5166-0.012-0.1877-2e-3 -0.3755-3e-3 -0.5344-0.013-0.2108-0.012-0.404-0.03-0.597-0.049h-0.0012zm20.69-109 4.4-4.38 4.401 4.38-1.467 1.46h-1.467l-1.467-1.46h-4.4z" clip-rule="evenodd" fill-rule="evenodd"/>
    <path d="m215.1 122v-15.37c0-0.637 5e-3 -1.599 0.012-2.813 0.034-6.321 0.106-19.5-0.329-29.52l-11.26-10.68h-6.029l-8.8 8.76-5.866-5.84h-17.6l-8.8 8.76v7.298h8.8v-4.38h5.867v5.84l-2.935 2.919-11.73 0.197-4.4 4.183h-5.867v5.84l-4.401 4.38v8.757h8.8l5.868-5.839h5.867v2.92l5.866 5.84h2.935v-2.921l-5.867-5.839h5.867l5.865 5.839h7.334l-4.4-4.379 4.4-4.379h4.401l4.4 4.38h-4.4l-4.4 4.378 4.32 4.3 0.08 4.46h-5.866l17.6 17.52h2.932l2.934-2.919 5.867-5.84-5.867-5.84h8.801z"/>
  </g>
  <path d="m155.6 20.32h-100.5c-5.973 0-10.76 4.792-10.76 10.76v193c0 5.973 4.792 10.76 10.76 10.76h144.8c5.992 0 10.85-4.856 10.85-10.81v-148.9l-55.08-54.83zm0-5.319h-100.5c-8.91 0-16.08 7.173-16.08 16.08v193c0 8.91 7.173 16.08 16.08 16.08h144.8c8.911 0 16.17-7.218 16.17-16.13l-2e-3 -148.9-60.4-60.15z" clip-rule="evenodd" fill="url(#paint3_linear)" fill-rule="evenodd"/>
  <path d="m92.4 226h4.8v-10.6h6.84c6.72 0 9.4-4.72 9.4-8.72 0-4.28-2.44-8.68-9.4-8.68h-11.64v28zm11.88-15.16h-7.08v-8.28h7.08c3.28 0 4.2 2.36 4.2 4.12 0 1.96-1.12 4.16-4.2 4.16zm24.44 15.64c9.04 0 12.28-7.56 12.28-14.48s-3.24-14.48-12.28-14.48c-9 0-12.28 7.56-12.28 14.48s3.28 14.48 12.28 14.48zm0-4.6c-5.44 0-7.32-5.32-7.32-9.88 0-4.32 1.88-9.88 7.32-9.88s7.32 5.28 7.32 9.88c0 4.28-1.92 9.88-7.32 9.88zm27.73-19.28h7.96v-4.6h-20.72v4.6h7.96v23.4h4.8v-23.4z" fill="url(#paint4_linear)"/>
  <path d="m98.85 155h-17.73l-3.182 9.072h-9.936l-0.0054-3.166 16.83-41.82h10.78l16.42 41.82-0.055 3.166h-10l-3.117-9.072zm-2.663-7.715-6.17-17.59-6.17 17.59h12.34z" fill="#282828" fill-opacity=".1412"/>
  <path d="m98.27 152h-16.68l-3.171 9.041h-10.12l17.19-43.88h8.816l17.28 43.88h-10.12l-3.203-9.041zm-14.11-7.322h11.54l-5.803-16.42-5.74 16.42z" fill="url(#paint5_linear)"/>
  <path d="m185.7 113.7c-6.687-0.521-10.69-0.781-12-0.781-4.143 0-8.246 0.13-12.31 0.391l1.6-6.188c3.774-0.999 6.687-3.061 8.738-6.188 2.092-3.126 3.139-7.294 3.139-12.51 0-4.082-0.595-7.599-1.785-10.55-1.19-2.996-2.892-5.319-5.108-6.969-2.174-1.65-4.738-2.475-7.692-2.475-4.882 0-8.697 1.694-11.45 5.08-2.748 3.387-4.123 8.207-4.123 14.46 0 4.646 1.046 8.663 3.139 12.05 2.092 3.344 4.902 5.666 8.43 6.97l-2.03 6.187c-1.847-0.086-3.713-0.173-5.6-0.26-1.847-0.087-3.693-0.13-5.539-0.13-1.887 0-3.754 0.043-5.6 0.13-1.846 0.043-3.712 0.108-5.6 0.195l-0.43-0.716 1.784-6.188 16.49 1.107v-0.586c-4.225-1.65-7.569-4.168-10.03-7.555-2.421-3.43-3.631-7.338-3.631-11.72 0-4.559 0.964-8.446 2.892-11.66 1.969-3.213 4.759-5.667 8.369-7.36 3.652-1.737 8.021-2.605 13.11-2.605 7.466 0 13.17 1.78 17.11 5.341 3.939 3.561 5.908 8.641 5.908 15.24 0 3.43-0.677 6.6-2.031 9.51-1.354 2.909-3.159 5.319-5.415 7.23-2.257 1.91-4.759 3.083-7.508 3.517l-0.061 0.586 19.51-0.977-2.277 7.425z" fill="#282828" fill-opacity=".1412"/>
  <path d="m185.7 110.5c-6.687-0.521-10.69-0.782-12-0.782-4.143 0-8.246 0.131-12.31 0.391l1.6-6.187c3.774-0.999 6.687-3.062 8.738-6.188 2.092-3.126 3.139-7.295 3.139-12.51 0-4.082-0.595-7.599-1.785-10.55-1.19-2.996-2.892-5.319-5.108-6.969-2.174-1.65-4.738-2.475-7.692-2.475-4.882 0-8.697 1.694-11.45 5.08-2.748 3.387-4.123 8.207-4.123 14.46 0 4.646 1.046 8.663 3.139 12.05 2.092 3.344 4.902 5.667 8.43 6.969l-2.03 6.188c-1.847-0.087-3.713-0.174-5.6-0.261-1.847-0.086-3.693-0.13-5.539-0.13-1.887 0-3.754 0.044-5.6 0.13-1.846 0.044-3.712 0.109-5.6 0.196l-0.43-0.717 1.784-6.187 16.49 1.107v-0.586c-4.225-1.65-7.569-4.169-10.03-7.556-2.421-3.43-3.631-7.338-3.631-11.72 0-4.559 0.964-8.446 2.892-11.66 1.969-3.213 4.759-5.666 8.369-7.36 3.652-1.737 8.021-2.605 13.11-2.605 7.466 0 13.17 1.78 17.11 5.341 3.939 3.561 5.908 8.641 5.908 15.24 0 3.43-0.677 6.6-2.031 9.509-1.354 2.909-3.159 5.319-5.415 7.23-2.257 1.911-4.759 3.083-7.508 3.518l-0.061 0.586 19.51-0.977-2.277 7.425z" fill="url(#paint6_linear)"/>
  <path d="m109.5 85.27 2.503 7.649 17.44-19.22v-4.648l-25.36-8.048 0.081 4.441 1.399 7.284c-22.2 11.18-31.07 29.26-31.07 30.09v4.649l14.09 2.325c3.187-13.47 11.02-20.29 20.91-24.52z" fill="#3c3836" fill-opacity=".1412"/>
  <path d="m109.5 80.62 2.503 7.649 17.44-19.22-25.36-8.048 1.48 7.076c-25.01 12.6-27.63 23.64-31.07 34.74l13.51 2.39c3.187-13.47 11.6-20.35 21.49-24.58z" fill="url(#paint7_linear)"/>
  <path d="m141.3 148.7-2.503-7.649-18.85 14.81 0.012 4.41 25.44 8.704-0.138-5.159-0.812-2.386c25.02-12.6 29.57-29.38 30.38-33.37l0.024-5.97-12.07 2.029c-3.187 13.48-11.6 20.35-21.49 24.58z" fill="#282828" fill-opacity=".1419"/>
  <path d="m139.9 144.3-2.503-7.649-17.44 19.22 25.36 8.048-1.48-7.076c25.02-12.6 27.62-23.64 31.07-34.74l-13.51-2.389c-3.187 13.47-11.6 20.35-21.49 24.58z" fill="url(#paint8_linear)"/>
  <path d="m155.6 17v44.23c0 8.91 7.259 15.93 16.17 15.93l44.23-0.0112v-2l-60.4-58.15z" fill="#282828" opacity=".25"/>
  <path d="m155.6 15v44.23c0 8.91 7.259 15.93 16.17 15.93l44.23-0.0112-60.4-60.15z" fill="url(#paint9_linear)"/>
  <defs>
    <linearGradient id="paint0_linear" x1="39" x2="39" y1="186.5" y2="240.2" gradientUnits="userSpaceOnUse">
      <stop stop-color="#504945" offset="1e-7"/>
      <stop stop-color="#3c3836" offset="1"/>
    </linearGradient>
    <linearGradient id="paint1_linear" x1="127.1" x2="127.1" y1="46" y2="209.2" gradientUnits="userSpaceOnUse">
      <stop stop-color="#689d6a" offset="0"/>
      <stop stop-color="#689d6a" offset=".1"/>
      <stop stop-color="#8ec07c" offset="1"/>
    </linearGradient>
    <linearGradient id="paint3_linear" x1="127.5" x2="127.5" y1="15" y2="240.2" gradientUnits="userSpaceOnUse">
      <stop stop-color="#689d6a" offset="0"/>
      <stop stop-color="#689d6a" offset=".1"/>
      <stop stop-color="#8ec07c" offset="1"/>
    </linearGradient>
    <linearGradient id="paint4_linear" x1="39" x2="39" y1="187" y2="240" gradientUnits="userSpaceOnUse">
      <stop stop-color="#504945" offset="1e-7"/>
      <stop stop-color="#3c3836" offset="1"/>
    </linearGradient>
    <linearGradient id="paint5_linear" x1="68.3" x2="68.3" y1="117.2" y2="161" gradientUnits="userSpaceOnUse">
      <stop stop-color="#504945" offset="1e-7"/>
      <stop stop-color="#3c3836" offset="1"/>
    </linearGradient>
    <linearGradient id="paint6_linear" x1="131.5" x2="131.5" y1="62.63" y2="110.5" gradientUnits="userSpaceOnUse">
      <stop stop-color="#504945" offset="1e-7"/>
      <stop stop-color="#3c3836" offset="1"/>
    </linearGradient>
    <linearGradient id="paint7_linear" x1="102" x2="102" y1="61" y2="105.2" gradientUnits="userSpaceOnUse">
      <stop stop-color="#689d6a" offset="0"/>
      <stop stop-color="#689d6a" offset=".1"/>
      <stop stop-color="#8ec07c" offset="1"/>
    </linearGradient>
    <linearGradient id="paint8_linear" x1="147.4" x2="147.4" y1="119.7" y2="163.9" gradientUnits="userSpaceOnUse">
      <stop stop-color="#689d6a" offset="0"/>
      <stop stop-color="#689d6a" offset=".1"/>
      <stop stop-color="#8ec07c" offset="1"/>
    </linearGradient>
    <linearGradient id="paint9_linear" x1="185.8" x2="185.8" y1="15" y2="75.16" gradientUnits="userSpaceOnUse">
      <stop stop-color="#689d6a" offset="0"/>
      <stop stop-color="#689d6a" offset=".1"/>
      <stop stop-color="#8ec07c" offset="1"/>
    </linearGradient>
  </defs>
</svg>
